X:120
T:AIR VI. Give me a Lass with a Lump of Land.
O:england
B:Joseph Mitchell: "The Highland Fair" (1731)
N:No repeat marked in the music, but needed to fit the text.
M:6/8
L:1/8
K:G
g>ag fge|f2g a2f|g>ag f2e    |deg (dB)G:|
ABd  e2d|g2d e2d|ABd  e>fe/f/|gfe  dBG :|


